X:1
T:Julestjernen
T:Julestjernen
T:Dansk Folkemelodi
T:Joh. D. Behrens
T:N. F. S. Grundtvig
C:Joh. D. Behrens
Z:N. F. S. Grundtvig
%%score [ 1 2 3 4 ]
L:1/8
Q:1/4=92
M:4/4
K:G
V:1 treble-8 nm="T1"
V:2 treble-8 nm="T2"
V:3 bass nm="B1"
V:4 bass nm="B2"
V:1
!mf!"^Andante" G2!<(! A2 B2 c2!<)! | d2 g2 d4 | e3 d c2 B2 |!>(! d2 d2!>)! A4 | A3 B c2 A2 | %5
w: 1.Dej- lig er den|Him- mel blaa,|Lyst det er at|se der- paa,|hvor de gyld- ne|
 B3 c d2 B2 | A3 B c2 A2 | B3 c d2 B2 |!<(! d3 g!<)!!>(! d2 B2!>)! | c2 A2 B4 | %10
w: Sjer- ner blin- ke,|hvor de smi- le,|hvor de vin- ke|os fra Jor- den|op til sig,|
!<(! d3 g!<)!!>(! d2 B2!>)! | c4 A4 | G4 z4 |] %13
w: os fra Jor- den|op til|sig.|
V:2
!mf! G2!<(! A2 B2 c2!<)! | d2 c2 B4 | c3 G F2 G2 |!>(! (Ac) (BG)!>)! F4 | F3 G A2 F2 | G3 G G2 G2 | %6
w: 1.Dej- lig er den|Him- mel blaa,|Lyst det er at|se _ der- * paa,|hvor de gyld- ne|Sjer- ner blin- ke,|
 F3 G A2 F2 | G3 A B2 G2 |!<(! G3 G!<)!!>(! F2 G2!>)! | A2 F2 G4 |!<(! B3 B!<)!!>(! G2 G2!>)! | %11
w: hvor de smi- le,|hvor de vin- ke|os fra Jor- den|op til sig,|os fra Jor- den|
 A4 F4 | G4 z4 |] %13
w: op til|sig.|
V:3
!mf! G,2!<(! F,2 G,2 G,2!<)! | G,2 E,2 G,4 | G,3 G, D,2 D,2 |!>(! (D,F,) (G,D,)!>)! D,4 | %4
w: 1.Dej- lig er den|Him- mel blaa,|Lyst det er at|se _ der- * paa,|
 D,3 D, D,2 D,2 | D,3 D, D,2 D,2 | D,3 G, G,2 F,2 | G,3 G, G,2 G,2 | %8
w: hvor de gyld- ne|Sjer- ner blin- ke,|hvor de smi- le,|hvor de vin- ke|
!<(! D,3 D,!<)!!>(! D,2 G,2!>)! | E,2 D,2 D,4 |!<(! G,3 G,!<)!!>(! G,2 G,2!>)! | E,4 (D,2 C,2) | %12
w: os fra Jor- den|op til sig,|os fra Jor- den|op til _|
 B,,4 z4 |] %13
w: sig.|
V:4
!mf! G,2!<(! D,2 G,2 E,2!<)! | B,,2 C,2 G,4 | C,3 B,, A,,2 G,,2 |!>(! (F,,A,,) (G,,B,,)!>)! D,4 | %4
w: 1.Dej- lig er den|Him- mel blaa,|Lyst det er at|se _ der- * paa,|
 D,3 D, D,2 D,2 | G,,3 A,, B,,2 G,,2 | D,3 D, D,2 D,2 | G,,3 G,, G,,2 G,,2 | %8
w: hvor de gyld- ne|Sjer- ner blin- ke,|hvor de smi- le,|hvor de vin- ke|
!<(! B,,3 B,,!<)!!>(! D,2 G,2!>)! | C,2 D,2 G,,4 |!<(! G,,3 G,,!<)!!>(! B,,2 E,2!>)! | C,4 D,4 | %12
w: os fra Jor- den|op til sig,|os fra Jor- den|op til|
 G,,4 z4 |] %13
w: sig.|

